X:1
T:New Year Song (Haru-No-Uta)
T:Folk Song
%%score 1 2 3 4
L:1/8
M:2/4
K:A
V:1 treble nm="Soprano" snm="S."
V:2 treble nm="Alto" snm="A."
V:3 treble-8 nm="Tenor" snm="T."
V:4 bass nm="Bass" snm="B."
V:1
 AA cA | c2 dc | ff dd | cc A2 | cd cA | G4 | cd cA | G4 | FG AA | GF DC | FF GF | G2 AG | FF GF |1 %13
w: When night's shad- ows|fly- * *|New Year's dawn floods|all the sky;|Joy- ful voic- es|sound,|joy- ful voic- es|sound.|Branch- es of the|fra- grant pine hang|ev'- ry- where a-|round,- * *|ev'- ry- where a-|
w: Chi- to- tzu to|ya- * *|Chi to ya a|ka ré- ba;|Nin- gi- ya- ka|dé,|Nin- gi- ya- ka|dé.|Ka- * sa- ri|ta- té- ta- ru|Ma- tzu ka- sa-|ri,- * *|Ma- tzu ka- sa-|
 C4 :|2 C4- || C4 |] %16
w: round|round||
w: ri.|ri.||
V:2
 A2 FA | c2 Ac | d2 B2 | A2 Ac | cA cA | G2 G2 | cA cA | G4 | FG F2 | GF GA | BA GF | C2 AB | %12
 F2 c2 |1 G4 :|2 G4 || F4 |] %16
V:3
 C2 FC | F4 | A2 A2 | F2 AF | F2 FC | C2 C2 | FF FC | C4 | C2 C2 | GA dc | F2 G2 | F2 FF | D2 CC |1 %13
 e4 :|2 e4 || f4 |] %16
V:4
!f! F,,2 A,,2 | A,,2 D,A,, | D,2 F,,2 | A,,2 F,,2 | F,D A,F, | C,2 C,2 |!p! A,D A,F, | C,4 | %8
!f! A,G, F,2 | C,A, D,C, | A,2 G,A, | C,2 F,G, | A,2 G,A, |1 C,4 :|2 C,4 || F,,4 |] %16

